svgs/light/clapperboard-play.svg

<svg xmlns="http://www.w3.org/2000/svg" viewBox="0 0 512 512"><!-- Font Awesome Pro 6.0.0-alpha2 by @fontawesome - https://fontawesome.com License - https://fontawesome.com/license (Commercial License) --><path d="M448 32H64C28.654 32 0 60.654 0 96V416C0 451.346 28.654 480 64 480H448C483.346 480 512 451.346 512 416V96C512 60.654 483.346 32 448 32ZM433.375 64L337.375 160H230.625L326.625 64H433.375ZM281.375 64L185.375 160H78.625L174.625 64H281.375ZM32 96C32 78.355 46.355 64 64 64H129.375L33.375 160H32V96ZM480 416C480 433.645 465.645 448 448 448H64C46.355 448 32 433.645 32 416V192H480V416ZM480 160H382.625L469.797 72.828C476.008 78.668 480 86.822 480 96V160ZM205.594 412.531C209.594 414.797 214.094 416 218.656 416C223.781 416 228.781 414.516 233 411.75L339.656 342.781C347.375 337.781 352 329.266 352 320C352 310.719 347.375 302.188 339.656 297.203L233.062 228.281C224.75 222.859 214.25 222.516 205.531 227.5C197.188 232.281 192 241.297 192 251.031V388.969C192 398.703 197.188 407.719 205.594 412.531ZM224 260.531L315.969 320L224 379.469V260.531Z"/></svg>

<svg xmlns="http://www.w3.org/2000/svg" viewBox="0 0 512 512"><!--! Font Awesome Pro 6.3.0 by @fontawesome - https://fontawesome.com License - https://fontawesome.com/license (Commercial License) Copyright 2023 Fonticons, Inc. --><path d="M448 32H64C28.65 32 0 60.65 0 96v320c0 35.35 28.65 64 64 64h384c35.35 0 64-28.65 64-64V96C512 60.65 483.3 32 448 32zM433.4 64l-96 96H230.6l96-96H433.4zM281.4 64l-96 96H78.63l96-96H281.4zM32 96c0-17.64 14.36-32 32-32h65.38l-96 96H32V96zM480 416c0 17.64-14.36 32-32 32H64c-17.64 0-32-14.36-32-32V192h448V416zM480 160h-97.38l87.17-87.17C476 78.67 480 86.82 480 96V160zM205.6 412.5C209.6 414.8 214.1 416 218.7 416c5.125 0 10.16-1.511 14.38-4.276l106.6-68.94C347.4 337.8 352 329.3 352 319.1c0-9.281-4.628-17.81-12.35-22.8L233 228.3c-8.312-5.422-18.75-5.763-27.47-.7783C197.2 232.3 192 241.3 192 251v137.9C192 398.7 197.2 407.7 205.6 412.5zM224 260.5L315.1 320L224 379.5V260.5z"/></svg>
